public/animalImages/Disambig_gray.svg

<svg height="168" viewBox="0 0 220 168.001" width="220" xmlns="http://www.w3.org/2000/svg"><path d="m34.782398 67.970299h143.037v33.704102h-143.037z" fill="#ccc"/><path d="m177.87 134.236c-56.2419-.54803-60.7278-6.639-68.692-25.7918-9.15003-22.0087-28.4292-36.684-74.3955-36.684v33.7041c22.8048.61299 32.3316-3.83151 53.1132 34.7564 14.1107 26.2017 50.7569 28.2237 89.9743 27.7194z" fill="#ccc"/><g fill="#999"><path d="m179.376 41.2135c-51.7207.959059-61.2309 16.389-73.0751 32.8194-11.2241 15.5729-25.5521 27.6414-71.5184 27.6414v-33.7041c22.8048-.612994 40.121-7.05239 54.3215-28.9702 16.1812-24.978 51.0545-31.995 90.272-31.4907v33.7041z"/><circle cx="27.3332" cy="87.904999" r="27.3332"/><path d="m176.499 0 43.502 24.4005-43.502 24.2505z"/></g></svg>

<?xml version="1.0" encoding="UTF-8" standalone="no"?>
<!-- Created with Inkscape (http://www.inkscape.org/) -->
<svg
   xmlns:svg="http://www.w3.org/2000/svg"
   xmlns="http://www.w3.org/2000/svg"
   version="1.0"
   width="220"
   height="168"
   viewBox="0 0 220 168.001"
   id="svg1410"
   xml:space="preserve">
 <defs
   id="defs1412">
  <style
   type="text/css"
   id="style1414" />
 
  
  
  
  
  
  
 </defs>
 <rect
   width="143.037"
   height="33.704102"
   x="34.782398"
   y="67.970299"
   style="fill:#ccc;fill-opacity:1"
   id="rect1418" /><path
   d="M 177.87,134.236 C 121.6281,133.68797 117.1422,127.597 109.178,108.4442 C 100.02797,86.4355 80.7488,71.7602 34.7825,71.7602 L 34.7825,105.4643 C 57.5873,106.07729 67.1141,101.63279 87.8957,140.2207 C 102.0064,166.4224 138.6526,168.4444 177.87,167.9401 L 177.87,134.236 z "
   style="fill:#ccc;fill-opacity:1"
   id="path1420" /><path
   d="M 179.376,41.2135 C 127.6553,42.172559 118.1451,57.6025 106.3009,74.0329 C 95.0768,89.6058 80.7488,101.6743 34.7825,101.6743 L 34.7825,67.9702 C 57.5873,67.357206 74.9035,60.91781 89.104,39 C 105.2852,14.022 140.1585,7.005 179.376,7.5093 L 179.376,41.2134 L 179.376,41.2135 z "
   style="fill:#999;fill-opacity:1"
   id="path1422" /><circle
   cx="27.3332"
   cy="87.904999"
   r="27.3332"
   style="fill:#999;fill-opacity:1"
   id="circle1424" /><polygon
   points="176.499,0 220.001,24.4005 176.499,48.651 176.499,0 "
   style="fill:#999;fill-opacity:1"
   id="polygon1426" />
</svg>
